newicons/wild_rift.svg

<?xml version="1.0" encoding="UTF-8"?><svg id="a" xmlns="http://www.w3.org/2000/svg" viewBox="0 0 48 48"><defs><style>.g{fill:none;stroke:#fff;stroke-linecap:round;stroke-linejoin:round;}</style></defs><rect id="e" class="g" x="5.50005579" y="5.49810052" width="37" height="37" rx="4" ry="4"/><path id="f" class="g" d="M22.72457361,42.49924493c.03244972-.3689537.07736015-.74330139.13121033-1.12151718,4.37447929.473629,6.5061264-1.5135498,10.5885849-1.06121063l.16587448,2.18153763M22.47982264,37.48392892c.3529892,1.81641006.32429123,2.66677856.33087349,3.73732376M33.56896448,34.10340905c-.42704391,2.15577698-.33555222,3.58119965-.34165955,5.85174561M40.97046518,36.97203851c.55347061.23113632,1.06365585.51334,1.53040314.83989716M38.2729516,29.21027398c1.63710403,4.08922958,2.56824493,7.43605804,3.07285309,12.09509659M38.51620722,42.50294137c-1.12201691-.29854584-2.16186905-.6907196-3.20469666-1.20622635M20.66370058,36.79000497c-.21485329,1.9288826-.62863922,3.78712082,1.0147419,5.70757675M23.61394739,26.52343965l-.14215279-.73281479M30.44005442,28.88361001c-.7454052.96852875-2.68235779.17995262-4.2492981.33322525-1.31060028.12819862-1.67599678.26639557-2.70512581.58653831-1.88913155.58767128-2.31811333,1.82142639-3.28025627.73633575,1.71185875,1.71596718,3.29997253,4.15575218,5.51279449,4.02744865,1.90681458-.11055756,2.82587624-2.66261482,4.72188568-5.68354797h0M20.58266497,20.03872323c-1.54769516-.29780579-3.00383186-.80988312-4.58676147-.28995514-.38390827.12609863-.65417862.97489166-.79688072,1.49947548M25.08133173,18.89412332c.91712761-.837677,2.30065536-1.85050774,4.4044075-2.37041283.87207222.22065926,1.73057747.86455345,2.64398193,1.9126091M35.66104746,29.3639853c-.17118835-3.05827713,2.42308426-7.96097755,3.03005981-4.29134178.53627014,3.24218559-1.65802383,5.73915482-3.38557053,6.0076313-.52936554.74956322-1.04967117,2.07238579-1.60305786,2.66973686-1.91087914,2.06271362-2.57243347,2.33429337-3.77127266,3.50811005-.66024971.64646912-1.48664665,1.14430237-2.35303688,1.46560287-.44571877.16529846-.93487549.24545288-1.4094429.21763229-.87104988-.05105972-1.79987717-.21009445-2.52258682-.69898605-1.63167763-1.10378265-2.52000237-1.67520523-4.53241158-2.63905716l-3.52078724-2.91770172c-.46560574-.92918396-.86944866-1.98895836-1.10591793-3.3084507-.08767986-.48922348,1.27451134.73233223,1.95879555,1.55196953M14.19366789,19.66298699c-.40314198,1.27507401-.23399639,2.07013702.29238224,2.86844063-.44951439,2.23905754.00430012,3.89980507,1.16629982,6.5323391M32.04149103,15.33322263l1.51550293,1.88937664c.76792526,2.28552055,1.66573334,4.35920715,1.9288063,6.69742584M29.45891619,13.43843007l2.37890053.52439594M27.28301096,12.88205552l1.30883217-.47903252M24.78581858,13.23261571l1.57191467-1.40296841M22.8068223,13.78669858l.94791031-.93272018M8.28542852,32.99301553c.42017365,3.39239883,1.12776756,6.77983475,4.12558365,9.50625992M13.99823523,17.03965592c-1.43710899,2.63198471-2.38691998,5.92610168-2.79589367,9.30296135M11.79137468,36.67992425c.66850567,2.42605972,1.75524712,4.47980499,3.29155731,5.82204056M17.0155549,37.61706948c-6.29132366-2.36196518-10.37130451-9.34158516-11.51642323-14.91204453M16.49629068,12.35746598c-.97226429.4111414-1.99185562,1.12610245-2.94412994,2.07633305-4.18638706,4.17740726-7.07174683,12.90180111,1.08467484,20.34915638-1.28436184-.79935455-2.52145195-1.70628357-3.60698605-2.8239975M23.27915049,11.81856465c1.78897667-1.76136875,4.15933609-3.7501049,7.15060425-2.18225956,1.15906906.60751438,1.86847305,1.52783775,2.14490509,2.16071796,1.86505508,1.01134109,3.09391022,1.9294672,3.89181519,4.2590189,1.34062958,1.01922417,1.93677521,2.56522751,1.96226883,3.78188515l-.23356628,1.09809494c.48969269.95668983.6492691,2.27210045.35003662,3.07160568M22.66722155,8.84070802c.6735611-.18337727,1.34585762-.34922886,1.9775219.04442883M22.47699404,8.78906083c-.63665962-1.3668313-1.89020538-2.42597294-3.05918884-3.2920022M5.97116613,12.62558484l1.76310492-2.17369843c2.62959909-1.45856857,5.28140497-2.87281132,7.60401297-4.94468546M10.7105546,11.74229836c-.03293037.05988979,4.13632107-4.1361928,6.98453522-5.05896187.31942368-.10348749,1.00410843.08024788,1.00410843.08024788,1.67034912,1.25377274,2.47322083,3.19684124,2.75223732,4.48157597M21.43766642,15.32000375c-2.40796471-5.61612511-7.40110016-3.43900013-11.29947281-.85349083M19.57905626,14.55904317c-3.10357475-.86985779-5.20431328,2.95138454-.85291672,5.97513676"/></svg>

<?xml version="1.0" encoding="UTF-8" standalone="no"?>
<svg
   viewBox="0 0 48 48"
   version="1.1"
   id="svg1"
   sodipodi:docname="league_of_legends_wild_rift.svg"
   inkscape:version="1.2.2 (b0a8486541, 2022-12-01)"
   xml:space="preserve"
   xmlns:inkscape="http://www.inkscape.org/namespaces/inkscape"
   xmlns:sodipodi="http://sodipodi.sourceforge.net/DTD/sodipodi-0.dtd"
   xmlns="http://www.w3.org/2000/svg"
   xmlns:svg="http://www.w3.org/2000/svg"><sodipodi:namedview
     id="namedview1"
     pagecolor="#505050"
     bordercolor="#eeeeee"
     borderopacity="1"
     inkscape:showpageshadow="0"
     inkscape:pageopacity="0"
     inkscape:pagecheckerboard="0"
     inkscape:deskcolor="#505050"
     inkscape:zoom="12.59534"
     inkscape:cx="31.916567"
     inkscape:cy="9.9243057"
     inkscape:window-width="1918"
     inkscape:window-height="1053"
     inkscape:window-x="0"
     inkscape:window-y="0"
     inkscape:window-maximized="1"
     inkscape:current-layer="svg1"
     showgrid="false" /><defs
     id="defs1"><style
       id="style1">.a { fill:none;stroke:#fff;stroke-linecap:round;stroke-linejoin:round; }
</style></defs><rect
     style="display:inline;fill:none;stroke:#ffffff;stroke-linecap:round;stroke-linejoin:round;stop-color:#000000"
     id="rect1800"
     width="37"
     height="37"
     x="5.5"
     y="5.5"
     rx="4"
     ry="4"
     sodipodi:insensitive="true" /><path
     id="path8547"
     style="fill:none;fill-opacity:1;stroke:#ffffff;stroke-width:1;stroke-linecap:round;stroke-linejoin:round;stroke-opacity:1;stop-color:#000000"
     d="m 22.724517,42.501144 c 0.03245,-0.368954 0.07736,-0.743301 0.13121,-1.121516 4.37448,0.473629 6.506127,-1.513548 10.588586,-1.061211 l 0.165876,2.181537 M 22.479766,37.485827 c 0.35299,1.816411 0.324291,2.666778 0.330873,3.737322 m 10.75827,-7.117842 c -0.427043,2.155777 -0.335552,3.581198 -0.341658,5.851744 m 7.743159,-2.983117 c 0.55347,0.231138 1.063654,0.513339 1.530402,0.839896 m -4.227915,-8.601663 c 1.637104,4.08923 2.568246,7.436059 3.072854,12.095096 m -2.829596,1.19757 C 37.394134,42.206294 36.354282,41.814121 35.311453,41.298615 M 20.663644,36.791903 c -0.214853,1.928881 -0.628639,3.78712 1.014742,5.707578 M 23.613892,26.52534 23.471738,25.792525 m 6.968259,3.092985 c -0.745405,0.968528 -2.682358,0.179952 -4.249299,0.333226 -1.310601,0.128199 -1.675996,0.266395 -2.705125,0.586539 -1.889131,0.587672 -2.318113,1.821427 -3.280256,0.736335 1.711859,1.715969 3.299973,4.155752 5.512795,4.027448 1.906815,-0.110559 2.825876,-2.662614 4.721885,-5.683548 v 0 m -9.857389,-8.844886 c -1.547695,-0.297806 -3.003831,-0.809883 -4.586761,-0.289955 -0.383908,0.126098 -0.654179,0.974891 -0.796881,1.499475 m 9.88231,-2.354121 c 0.917127,-0.837677 2.300655,-1.850508 4.404408,-2.370413 0.872073,0.220659 1.730577,0.864553 2.643983,1.912609 m 3.531327,10.927666 c -0.171188,-3.058277 2.423085,-7.960977 3.030059,-4.291341 0.536271,3.242186 -1.658025,5.739154 -3.385572,6.007631 -0.529366,0.749564 -1.049671,2.072385 -1.603056,2.669738 -1.910879,2.062712 -2.572434,2.334293 -3.771272,3.50811 -0.660249,0.646468 -1.486647,1.144301 -2.353037,1.465602 -0.445718,0.165298 -0.934876,0.245454 -1.409443,0.217632 -0.871049,-0.05106 -1.799877,-0.210095 -2.522586,-0.698986 -1.631678,-1.103781 -2.520003,-1.675206 -4.532411,-2.639056 l -3.520787,-2.917703 c -0.465606,-0.929183 -0.869449,-1.988958 -1.105918,-3.30845 -0.08768,-0.489223 1.274511,0.732333 1.958795,1.551969 M 14.193612,19.664886 c -0.403142,1.275075 -0.233996,2.070138 0.292382,2.868441 -0.449514,2.239058 0.0043,3.899805 1.1663,6.532339 m 16.389142,-13.730544 1.515502,1.889377 c 0.767924,2.285521 1.665733,4.359208 1.928806,6.697427 m -6.026884,-10.481595 2.3789,0.524396 m -4.554805,-1.08077 1.308833,-0.479033 m -3.806024,0.829593 1.571914,-1.402968 m -3.550911,1.957051 0.94791,-0.93272 M 8.2853723,32.994915 c 0.4201735,3.392397 1.1277674,6.779836 4.1255837,9.506262 m 1.587223,-25.459619 c -1.437109,2.631984 -2.38692,5.926101 -2.795894,9.30296 m 0.589033,10.337309 c 0.668506,2.426061 1.755247,4.479804 3.291557,5.822042 M 17.0155,37.61897 C 10.724175,35.257004 6.6441948,28.277384 5.4990758,22.706925 M 16.496235,12.359365 c -0.972264,0.411141 -1.991856,1.126102 -2.94413,2.076333 C 9.3657183,18.613106 6.480358,27.3375 14.63678,34.784855 13.352418,33.985501 12.115328,33.078572 11.029794,31.960857 M 23.279095,11.820464 c 1.788976,-1.761369 4.159335,-3.750105 7.150605,-2.1822601 1.159069,0.6075141 1.868475,1.5278381 2.144906,2.1607181 1.865056,1.011341 3.09391,1.929467 3.891814,4.25902 1.340629,1.019225 1.936777,2.565228 1.96227,3.781885 l -0.233566,1.098095 c 0.489691,0.956689 0.649268,2.2721 0.350036,3.071605 M 22.667166,8.8426078 c 0.673561,-0.1833771 1.345858,-0.3492289 1.977522,0.044429 m -2.16775,-0.096076 C 21.840279,7.424129 20.586733,6.3649876 19.417749,5.4989583 M 5.9711105,12.627484 7.7342151,10.453786 C 10.363814,8.9952178 13.01562,7.5809746 15.338228,5.5091004 m -4.627729,6.2350976 c -0.03293,0.05989 4.136321,-4.1361928 6.984535,-5.0589619 0.319424,-0.1034877 1.004109,0.080248 1.004109,0.080248 1.67035,1.253773 2.47322,3.1968414 2.752238,4.4815759 m -0.01377,4.074843 c -2.407964,-5.616125 -7.4011,-3.439 -11.299473,-0.853491 m 9.440863,0.09253 c -3.103575,-0.869858 -5.204313,2.951384 -0.852916,5.975137"
     sodipodi:nodetypes="cccccccccccccccccccsscssccscccccscsssssccsccccccccccccccccccccccccscccscccccccccccccscccccc" /></svg>
